static/images/pin.svg

<svg height="25" viewBox="0 0 25 25" width="25" xmlns="http://www.w3.org/2000/svg"><path d="m20.0721358 2.96243292c-3.903819-3.94991056-10.24045263-3.94991056-14.14427159 0-3.90381895 3.94991055-3.90381895 10.38998208 0 14.33989268l6.28005659 6.3542039c.2263083.2289803.5091938.3434705.7920792.3434705s.5657709-.1144902.7920792-.3434705l6.2800566-6.3828265c3.9038189-3.9499105 3.9038189-10.36135953 0-14.31127008zm-7.0721358 12.03756708c-2.7586207 0-5-2.2413793-5-5 0-2.75862069 2.2413793-5 5-5s5 2.24137931 5 5c0 2.7586207-2.2413793 5-5 5z" fill="#3a485d"/></svg>

<?xml version="1.0" encoding="UTF-8"?>
<svg width="25px" height="25px" viewBox="0 0 25 25" version="1.1" xmlns="http://www.w3.org/2000/svg" xmlns:xlink="http://www.w3.org/1999/xlink">
    <!-- Generator: sketchtool 46.2 (44496) - http://www.bohemiancoding.com/sketch -->
    <title>7AAF1893-B9E7-4010-99BA-A41E6E72103B</title>
    <desc>Created with sketchtool.</desc>
    <defs></defs>
    <g id="Symbols" stroke="none" stroke-width="1" fill="none" fill-rule="evenodd">
        <g id="pin" fill-rule="nonzero" fill="#3A485D">
            <path d="M20.0721358,2.96243292 C20.0721358,2.96243292 20.0721358,2.93381038 20.0721358,2.96243292 C16.1683168,-0.987477639 9.83168317,-0.987477639 5.92786421,2.96243292 C5.92786421,2.96243292 5.92786421,2.96243292 5.92786421,2.96243292 C2.02404526,6.91234347 2.02404526,13.352415 5.92786421,17.3023256 L12.2079208,23.6565295 C12.4342291,23.8855098 12.7171146,24 13,24 C13.2828854,24 13.5657709,23.8855098 13.7920792,23.6565295 L20.0721358,17.273703 C23.9759547,13.3237925 23.9759547,6.91234347 20.0721358,2.96243292 Z M13,15 C10.2413793,15 8,12.7586207 8,10 C8,7.24137931 10.2413793,5 13,5 C15.7586207,5 18,7.24137931 18,10 C18,12.7586207 15.7586207,15 13,15 Z" id="Shape"></path>
        </g>
    </g>
</svg>
